X: 1
T: Dans pe picior de Bihor
O: Romanian
%D:
R:
S: Fiddle Hell Online 2022-4-10 handout for Beth Bahia Cohen workshop
Z: 2022 John Chambers <jc:trillian.mit.edu>
M: 4/4
L: 1/16
K: Ddor
%%slurgraces 1
%%graceslurs 1
|:\
"Dm"(a^g/a/g)e fg{_b}ag "A"f2e=g "Dm"fede | "Bm"fd(Te2- "A"eud)^ce "Dm"def^g "C"{_b}agae | "F"(a^g/a/g)e fg{_b}ag "A"f2e=g fede |
"Bm"fd(Te2- "A"eud)^ce "Dm"dABc {e}dcd2 :: "G"(ga)b2 b2b2 b2b2 (c'b/c'/)(a^g) | "E"a2bc' ({bc'}be)bd' "A"c'ba^g "Dm"(fe)d2 |
"G"(ga)b2 b2b2 b2b2 "E"(c'b/c'/)a2 | "A"^gafa {ga}gf{ef}e^c "Dm"dABc {e}dcd2 :: "A"(^cd)e2 e2e2 e2e2 ({g}fe/f/)d |
"E"{fe}e2(T^g2- ge)gb "A"(ag/a/)fg "Dm"fed2 | "C"(^ce)e2 e2e2 "E"e2e2 "A"({g}fe/f/)d | "E"^gafa {ga}gf{ef}e^c "Dm"dABc {e}dcd2 :|
